icons/op-view-split-modal-16.svg

<svg width="16" height="16" viewBox="0 0 16 16" fill="none" xmlns="http://www.w3.org/2000/svg">
<g clip-path="url(#clip0_35_1768)">
<path d="M1.75 0H14.25C15.216 0 16 0.784 16 1.75V14.25C16 14.7141 15.8156 15.1592 15.4874 15.4874C15.1592 15.8156 14.7141 16 14.25 16H1.75C1.28587 16 0.840752 15.8156 0.512563 15.4874C0.184374 15.1592 0 14.7141 0 14.25V1.75C0 0.784 0.784 0 1.75 0ZM1.5 1.75V14.25C1.5 14.388 1.612 14.5 1.75 14.5H9.5V1.5H1.75C1.6837 1.5 1.62011 1.52634 1.57322 1.57322C1.52634 1.62011 1.5 1.6837 1.5 1.75ZM11 14.5H14.25C14.3163 14.5 14.3799 14.4737 14.4268 14.4268C14.4737 14.3799 14.5 14.3163 14.5 14.25V1.75C14.5 1.6837 14.4737 1.62011 14.4268 1.57322C14.3799 1.52634 14.3163 1.5 14.25 1.5H11V14.5Z" fill="#1F2328"/>
<path fill-rule="evenodd" clip-rule="evenodd" d="M6.27099 6.8185L5.41846 6.49996L4.75 6.8175L5.51 7.2505L6.27099 6.8185ZM4.001 8.1165V9.2935L4.761 9.66573L4.76 8.5495L4.001 8.1165ZM6.261 9.66473L7.01899 9.2935V8.1185L6.26 8.5495L6.261 9.66473ZM4.66846 5.20096C4.89649 5.06931 5.15516 5 5.41846 5C5.68177 5 5.94043 5.06931 6.16846 5.20096L7.76999 5.9505C7.99819 6.08223 8.18759 6.27174 8.31929 6.49996C8.45099 6.72817 8.52019 6.98703 8.51999 7.2505V9.2935C8.51999 9.5568 8.45069 9.8155 8.31899 10.0435C8.18739 10.2715 7.99799 10.4609 7.76999 10.5925L6.26 11.3967C6.03197 11.5284 5.77331 11.5977 5.51 11.5977C5.2467 11.5977 4.98803 11.5284 4.76 11.3967L3.25 10.5925C3.02183 10.4608 2.83239 10.2713 2.70073 10.043C2.56906 9.8148 2.49983 9.556 2.5 9.2925V7.2515C2.49983 6.98803 2.56906 6.72917 2.70073 6.50096C2.83239 6.27274 3.02183 6.08323 3.25 5.9515L4.66946 5.20196L4.66846 5.20096Z" fill="#1F2328"/>
</g>
<defs>
<clipPath id="clip0_35_1768">
<rect width="16" height="16" fill="white"/>
</clipPath>
</defs>
</svg>

<svg xmlns="http://www.w3.org/2000/svg" width="16" height="16" viewBox="0 0 16 16"><path d="M1.75 0h12.5C15.216 0 16 .784 16 1.75v12.5c0 .464-.184.909-.513 1.237A1.746 1.746 0 0 1 14.25 16H1.75c-.464 0-.909-.184-1.237-.513A1.746 1.746 0 0 1 0 14.25V1.75C0 .784.784 0 1.75 0ZM1.5 1.75v12.5c0 .138.112.25.25.25H9.5v-13H1.75a.25.25 0 0 0-.25.25ZM11 14.5h3.25a.25.25 0 0 0 .25-.25V1.75a.25.25 0 0 0-.25-.25H11Z"/><path d="M4.668 5.201a1.497 1.497 0 0 1 1.5 0l1.602.75a1.498 1.498 0 0 1 .75 1.3v2.042a1.492 1.492 0 0 1-.75 1.299l-1.51.805a1.508 1.508 0 0 1-1.5 0l-1.51-.805a1.498 1.498 0 0 1-.75-1.3v-2.04a1.498 1.498 0 0 1 .75-1.301l1.419-.749Zm-.667 2.915v1.177l.76.373L4.76 8.55Zm2.26 1.549.758-.372V8.118l-.759.432Zm.01-2.846L5.418 6.5l-.668.318.76.433Z"/></svg>
